**kern	**silbe
*ICvox	*
*D-:	*
*M4/4	*
*clefF4	*
r;	.
=1	=1
1r	.
=2	=2
1r	.
=3	=3
1r	.
=4	=4
1r	.
=5	=5
1r	.
=6	=6
4r	.
8c-	Well,
8c-	I
8c-	quit
4c-	my
[8c-	job
=7	=7
8c-]	_
4.A-	down
4G	at
8G-	the
[8A-	car
=8	=8
8A-]	_
4D-	wash,
8D-	I
4F	left
4G-	my
=9	=9
8A-	ma-
8A-	-ma
4G	a
8G-	good-
4F	-bye
[8A-	note
=10	=10
4A-]	_
4r	.
8r	.
4.B-	By
=11	=11
8c-	sun-
4c-	-down
8c-	I'd
8c-	l-
4.c-	-left
=12	=12
4d-	King-
8D-	-ston,
8D-	a'-
8F	-with
4.G-	my
=13	=13
8G	gui-
4.G	-tar
8G-	un-
8D-	-der
8D-	my
8D-	coat
=14	=14
4r	.
8r	.
8D-	I
8B-	hitch-
4B-	-hiked
[8c-	all
=15	=15
8c-]	_
8c-	the
16c-	way
8.A-	_
16A-	down
8.G-	_
8G-	to
[8G-	Mem
=16	=16
8G-]	_
8D-	phis,
8F	got
8F	a
8G-	room
4G-	at
8F	the
=17	=17
8Fq	_
4G-	Y-
8Fq	_
4G-	-M-
8Fq	_
8G-	-C-
4A-	-A
8r	.
=18	=18
2r	.
8r	.
8F	a'-
8B-	-for
8A-	the
=19	=19
4c-	next
4c-	three
8c-	weeks
8A-	I
8B-	went
8A-	a'-
=20	=20
8c-	-hun-
8c-	-tin'
4c-	them
4c-	nights,
8G-	just
8G-	a'-
=21	=21
8G-	-loo-
8G-	-kin'
8G-	for
8G-	a
4A-	place
8D-	to
[8D-	play
=22	=22
4D-]	_
4r	.
8r	.
8A-	Well,
4B-	I
=23	=23
4c-	thought
4c-	my
8c-	pic-
8B-	-kin'
4A-	would
=24	=24
12c-	set
12c-	'em
[12c-	on
8c-]	_
8B-q	_
[8c-	fire,
4.c-]	_
8A-	but
=25	=25
8d-	no-
[8d-	-bo
16d-]	_
8d-	dy
6B-	wan-
6A-	-ted
6G-	to
[16D-	hi-
=26	=26
4D-]	-re
4D-	a
8F-	gui-
4D-	-tar
[8D-	man
=27	=27
2D-]	_
2r	.
=28	=28
1r	.
=29	=29
1r	.
=30	=30
4r	.
8d-	Well,
8B-	I
8d-	near-
8B-	-ly
4d-	'bout
=31	=31
4d-	starved
8B-	to
[8d-	death
8d-]	_
4d-	down
8d-	in
=32	=32
8B-	Mem-
8D-	-phis
4r	.
4r	.
8r	.
8G-	I
=33	=33
8A-	run
4A-	out-
8A-	-ta
8G	mo-
8G	-ney
8G-	and
8G-q	_
8A-	luck
=34	=34
2r	.
8r	.
8d-	so
8B-	I
[8d-	bought
=35	=35
4d-]	_
8d-	me
8B-	a
4d-	ride
8d-	down
8B-	to
=36	=36
4d-	Ma-
8B-	-con,
8d-	Geor
8B-	_
8A-	gia
8F-	on
8G-	an
=37	=37
8G	o-
8G	-ver-
8G	-loa-
8G	-ded
4A-	poul-
8D-	-try
8D-	truck
=38	=38
4r	.
8r	.
8A-	I
4c-	thumbed
4c-	on
=39	=39
4c-	down
8A-	to
8G-	Pa-
8G-	-na-
4.G-	-ma
=40	=40
8A-	Ci-
8D-	-ty,
8F	star-
8F	-ted
8G-	pic-
8F	-kin'
4G-	out
=41	=41
8G-	some
8G-	of
8G-	them
[8G-	all
8G-]	_
4G-	night
[8A-	bars
=42	=42
2A-]	_
4r	.
8r	.
8G-	A'-
=43	=43
8c-	-ho-
8B-	-pin'
8c-	I
8B-	could
4c-	make
4A-	my-
=44	=44
4c-	-self
8B-	a
[8B-	dol
8B-]	_
8A-	lar
8G	ma-
8G	-kin'
=45	=45
8G	mu-
8G	-sic
4G	on
4G-	my
8G-	gui-
8G	-tar
=46	=46
8D-	_
8r	.
4r	.
8r	.
8A-	I
8B-	got
8A-	the
=47	=47
8B-q	_
4c-	same
8B-q	_
4c-	old
12c-	sto-
12c-	-ry
12B-	at
8A-	them
8B-q	_
[8c-	all
=48	=48
8c-]	_
8B-q	_
4c-	night
8B-q	_
[8c-	piers
4c-]	_
8r	.
8A-	there
=49	=49
4d-	ain't
4d-	no
8B-	room
8A-	a-
4G-	-round
=50	=50
4G	here
8D-	for
8D-	a
8F-	gui-
4D-	-tar
[8D-	man
=51	=51
4.D-]	_
8G	We
4A-	don't
8A-	need
8G	a
=52	=52
8G	gui-
4G-	-tar
[8F	man,
4F]	_
8E-	son!
8F	_
=53	=53
1r	.
=54	=54
2r	.
8r	.
8A-	So
4c-	I
=55	=55
4c-	slept
8A-	in
8G	the
8G-	ho-
4G-	-bo
8G-q	_
[8A-	jun
=56	=56
8A-]	_
8D-	gles
4r	.
8r	.
8A-	I
8c-	roamed
8A-	a
=57	=57
4d-	thou-
8d-	-sand
[8d-	miles
8d-]	_
8D-	_
8D-	of
8F-	track
=58	=58
2r	.
8r	.
8A-	'Till
4B-	I
=59	=59
4c-	found
4c-	my-
8c-	-self
8A-	in
4B-	Mo-
=60	=60
8c-	-bi-
8c-	-le
8c-	A-
8A-	-la-
8B-	-ba-
8A-	-ma
8G	at
8G-	a
=61	=61
4G-	club
4G-	they
4G	call
4G	Big
=62	=62
4D-	Jack's
4r	.
8r	.
8B-	A
4B-	lil'
=63	=63
4c-	four-
4B-	-piece
4G-	band
8F	was
8G-	jam-
=64	=64
4D-	-ming,
8F	so
8F	I
8G-	took
4G-	my
[8G-	gui
=65	=65
8G-]	_
4G-	tar
8G-	and
4G-	I
8G-	sat
[8A-	in
=66	=66
8A-]	_
8D-	_
4r	.
4r	.
8r	.
8A-	I
=67	=67
8B-	showed
8B-	'em
8B-	what
8B-	a
4B-	band
8B-	would
[8B-	sound
=68	=68
8B-]	_
8B-	like
4r	.
8r	.
8B-	a'
8B-	with
8B-	a
=69	=69
8d-q	_
8e-	swin-
8e-	-gin'
8e-	lit-
8e-	-tle
8c	gui-
4A-	-tar
[8A-	man!
=70	=70
4A-]	_
8c-	Show
[8B-	'em,
8B-]	_
4.A-	son!
=71	=71
1r	.
=72	=72
1r	.
=73	=73
1r	.
=74	=74
1r	.
=75	=75
1r	.
=76	=76
1r	.
=77	=77
1r	.
=78	=78
1r	.
=79	=79
1r	.
=80	=80
1r	.
=81	=81
1r	.
=82	=82
1r	.
=83	=83
1r	.
=84	=84
1r	.
=85	=85
1r	.
=86	=86
1r	.
=87	=87
1r	.
=88	=88
1r	.
=89	=89
1r	.
=90	=90
1r	.
=91	=91
1r	.
=92	=92
8r	.
4c-	If
8A-	you
8c-	e-
8A-	-ver
8c-	take
8A-	a
=93	=93
4d-	trip
4d-	down
4d-	to
8d-	the
[8B-	o
=94	=94
8B-]	_
8D-	cean
8r	.
[8G	find
8G]	_
4G	your-
8A-	-self
=95	=95
8r	.
4G-	down
8F	a-
4G-	-round
4F	Mo-
=96	=96
4A-	-bile
4r	.
2r	.
=97	=97
12d-	make
12d-	it
12d-	on
[4d-	out
8d-]	_
8B-	to
8A-	a
[8d-	club
=98	=98
8d-]	_
4.d-	called
4B-	Jack's
8r	.
8D-	you
=99	=99
8G	got-
8G	-ta
8G	lit-
8G	-tle
4G	time
8G	to
8A-	kill
=100	=100
4D-	_
4r	.
8r	.
8B-	A'-
4B-	-just
=101	=101
8c-	fol-
8B-	-low
4A-	that
4G-	crowd
8F	of
[8A-	peo
=102	=102
8A-]	_
8D-	ple,
4G-	you'll
4G-	wind
4G-	up
=103	=103
8G-	out
4.G-	on
4G-	his
4G-	dance
=104	=104
4A-	floor
4r	.
4r	.
8r	.
8G-	a'
=105	=105
8c-	dig-
8c-	-gin
8c-	the
[8c-	fi
8c-]	_
8A-	nest
8B-	lit-
8A-	-tle
=106	=106
8B-q	_
4c-	five
8B-q	_
4c-	piece
8B-q	_
4c-	group,
8F	up
8F	a
=107	=107
8G-	down
8G-	the
8G-	Gulf
8G-	of
4A-	Me-
8D-	-xi-
[8D-	-co
=108	=108
4.D-]	_
8r	.
4r	.
8r	.
8A-	A'
=109	=109
8B-q	_
4c-	guess
8B-q	_
4c-	who's
8c-	lea-
8B-	-din'
4c-	that
=110	=110
8B-q	_
4c-	five
8B-q	_
4c-	piece
8B-q	_
4.c-	band,
8A-	well,
=111	=111
8d-	would-
8d-	-n't
8d-	ya
[8d-	know,
8d-]	_
8D-	it's
4F	that
=112	=112
8G-	swin-
8G-	-gin'
8G-	lit-
8A-	-tle
8F	gui-
4.D-	-tar
=113	=113
2D-	man,
4c-	hey!
4r	.
=114	=114
4r	.
4d-	Hey!
2r	.
=115	=115
1r	.
=116	=116
1r	.
=117	=117
1r	.
=118	=118
1r	.
=119	=119
1r	.
=120	=120
8r	.
4a-	Uh!
4r	.
4.r	.
=121	=121
1r	.
=122	=122
1r	.
=123	=123
1r	.
=124	=124
2r	.
8r	.
4d-	Mm-
[8d-	-hm
=125	=125
4d-]	_
4r	.
2r	.
=126	=126
2r	.
8r	.
4d-	Mm-
[8d-	-hm
=127	=127
4d-]	_
4r	.
2r	.
=128	=128
2r	.
8r	.
4A-	Mm-
[8c-	-hm
=129	=129
8c-]	_
4A-	mm-
[8B-	-hm
4B-]	_
4r	.
=130	=130
2r	.
8r	.
4d-	Mm-
[8d-	-hm
=131	=131
4d-]	_
4r	.
2r	.
=132	=132
1r	.
r;	.
*-	*-
!!!ENC: Nathaniel Condit-Schultz